!!!!SEGMENT: Ror0117-Amor_che_vedi_ogni_pensiero_aperto.krn
!!!id: Ror0117
!!!AGN: Secular work
!!!voices: 5
!!!COM: Cipriano de Rore
!!!OTL: Amor che vedi ogni pensiero aperto
**kern	**text	**kern	**text	**kern	**text	**kern	**text	**kern	**text
*part5	*part5	*part4	*part4	*part3	*part3	*part2	*part2	*part1	*part1
*staff5	*staff5	*staff4	*staff4	*staff3	*staff3	*staff2	*staff2	*staff1	*staff1
*I"Bassus	*	*I"Tenor II	*	*I"Tenor I	*	*I"Altus	*	*I"Superius	*
*I'B	*	*I'T. II	*	*I'T. I	*	*I'A	*	*I'S	*
*clefF4	*	*clefGv2	*	*clefGv2	*	*clefGv2	*	*clefG2	*
*k[]	*	*k[]	*	*k[]	*	*k[]	*	*k[]	*
*MM140	*	*MM140	*	*MM140	*	*MM140	*	*MM140	*
*M2/1	*	*M2/1	*	*M2/1	*	*M2/1	*	*M2/1	*
*met(C)	*	*met(C)	*	*met(C)	*	*met(C)	*	*met(C)	*
=1	=1	=1	=1	=1	=1	=1	=1	=1	=1
!!section: Amor, che vedi
!!!OMD: Amor, che vedi
1r	.	1r	.	1r	.	1C	A-	1r	.
1r	.	2G	A-	1r	.	2.BB	-mor,	2r	.
.	.	[2E	-mor,	.	.	.	.	2g	A-
.	.	.	.	.	.	4BB	che	.	.
=2	=2	=2	=2	=2	=2	=2	=2	=2	=2
1r	.	4E]	.	1r	.	2.C	ve-	4g	-mor,
.	.	4E	che	.	.	.	.	4g	che
.	.	2F	ve-	.	.	.	.	2a	ve-
.	.	.	.	.	.	4D	-di o-	.	.
1r	.	2C	-di o-	1r	.	4E	-gni	4.g	-di o-
.	.	.	.	.	.	4E	pen-	.	.
.	.	.	.	.	.	.	.	8a	.
.	.	4G	-gni	.	.	4D	-sie-	4b	.
.	.	4E	pen-	.	.	4GG	-ro a-	4cc	-gni
=3	=3	=3	=3	=3	=3	=3	=3	=3	=3
1r	.	2.F	-sie-	1r	.	4.AA	-per-	4cc	pen-
.	.	.	.	.	.	.	.	2a	-sie-
.	.	.	.	.	.	8BB	.	.	.
.	.	.	.	.	.	2C	.	.	.
.	.	4E	-ro a-	.	.	.	.	2g	-ro a-
1r	.	2e	-per-	2r	.	2C	-to,	.	.
.	.	.	.	.	.	.	.	4.cc	-per-
.	.	2d	-to,	2G	A-	4r	.	.	.
.	.	.	.	.	.	.	.	8b	.
.	.	.	.	.	.	4G	A-	4b	.
=4	=4	=4	=4	=4	=4	=4	=4	=4	=4
2C	A-	4r	.	4G	-mor,	2.E	-mor,	2cc	-to,
.	.	4c	A-	4G	che	.	.	.	.
4AA	-mor,	4c	-mor,	2A	ve-	.	.	4r	.
4AA	che	4C	che	.	.	4E	che	4cc	A-
2C	ve-	4.E	ve-	4.G	-di o-	4E	ve-	4cc	-mor
.	.	.	.	.	.	4E	-di o-	4cc	che
.	.	8F	.	8A	.	.	.	.	.
4GG	-di o-	4G	.	4B	.	4D	-gni	4b	ve-
4C	-gni	4E	-di o-	4c	-gni	[4E	pen-	4g	-di o-
=5	=5	=5	=5	=5	=5	=5	=5	=5	=5
4AA	pen-	4A	-gni	4c	pen-	4E]	.	2.a	-gni
2D	-sie-	4A	pen-	2A	-sie-	2F	-sie-	.	.
.	.	2D	-sie-	.	.	.	.	.	.
4GG	-ro a-	.	.	2G	-ro a-	4D	-ro a-	4b	pen-
2C	-per-	2E	-ro	.	.	8CL	-per-	4cc	-sie-
.	.	.	.	.	.	8D	.	.	.
.	.	.	.	2c	-per-	8E	.	4g	-ro a-
.	.	.	.	.	.	8CJ	.	.	.
2GG	-to	2G	a-	.	.	2D	.	2g	-per-
.	.	.	.	4B	-to	.	.	.	.
=6	=6	=6	=6	=6	=6	=6	=6	=6	=6
2r	.	1C	-per-	4r	.	1E	-to	1g	-to
.	.	.	.	4c	E i	.	.	.	.
1G	E i	.	.	2c	du-	.	.	.	.
.	.	1D	-to	2B	-ri	2r	.	1r	.
[2F	du-	.	.	2A	pas-	2D	E i	.	.
=7	=7	=7	=7	=7	=7	=7	=7	=7	=7
2F]	.	1r	.	2A	-si,	2.C	du-	2a	E i
2E	-ri	.	.	2r	.	.	.	1g	du-
.	.	.	.	.	.	4C	-ri	.	.
1D	pas-	2r	.	1r	.	2BB	pas-	.	.
.	.	[2d	E i	.	.	2AA	-si,	2f	-ri
=8	=8	=8	=8	=8	=8	=8	=8	=8	=8
2D	-si	2d]	.	1A	E i	1r	.	2.f	pas-
4r	.	1c	du-	.	.	.	.	.	.
4AA	on-	.	.	.	.	.	.	4e	-si,
4C	-de	.	.	2.G	du-	2E	E i	4r	.
4C	tu	.	.	.	.	.	.	2g	E i
8GGL	sol	2B	-ri	.	.	[2D	du-	.	.
8AA	.	.	.	.	.	.	.	.	.
8BB	.	.	.	4G	-ri	.	.	8dL	du-
8CJ	.	.	.	.	.	.	.	8eJ	.
=9	=9	=9	=9	=9	=9	=9	=9	=9	=9
4D	.	1.A	pas-	2F	pas-	2D]	.	8fL	.
.	.	.	.	.	.	.	.	8gJ	.
4D	mi	.	.	.	.	.	.	4.a	.
2AA	scor-	.	.	2E	-si	2C#X	-ri	.	.
.	.	.	.	.	.	.	.	8g	.
.	.	.	.	.	.	.	.	4e	.
2D	-gi,	.	.	4r	.	1D	pas-	2f#X	-ri
.	.	.	.	4D	on-	.	.	.	.
4r	.	2B	-si	4G	-de	.	.	[2g	pas-
4GG	on-	.	.	4G	tu	.	.	.	.
=10	=10	=10	=10	=10	=10	=10	=10	=10	=10
4G	-de	4r	.	8CL	sol	1E	.	2g]	.
.	.	.	.	8D	.	.	.	.	.
4G	tu	2c	on-	8E	.	.	.	.	.
.	.	.	.	8FJ	.	.	.	.	.
8CL	sol	.	.	4G	.	.	.	2g	-si
8D	.	.	.	.	.	.	.	.	.
8E	.	2B	-de	4G	mi	.	.	.	.
8FJ	.	.	.	.	.	.	.	.	.
4G	.	.	.	2E	scor-	2E	-si	4r	.
4C	mi	4c	tu	.	.	.	.	4g	on-
4.F	scor-	4.A	sol	4D	-gi,	4r	.	4a	-de
.	.	.	.	4D	on-	[4F	on-	4a	tu
8G	.	8G	.	.	.	.	.	.	.
=11	=11	=11	=11	=11	=11	=11	=11	=11	=11
2A	.	8FL	.	4D	-de	4F]	.	8dL	sol
.	.	8EJ	.	.	.	.	.	8e	.
.	.	4.D	.	4A	tu	4F	-de	8f	.
.	.	.	.	.	.	.	.	8gJ	.
2D	-gi,	.	.	4A	sol	2F	tu	4a	.
.	.	8E	.	.	.	.	.	.	.
.	.	2F	.	4A	mi	.	.	4a	mi
2r	.	.	.	2A	scor-	4.C	sol	1cc	scor-
.	.	4F	mi	.	.	.	.	.	.
.	.	.	.	.	.	8D	.	.	.
2C	Nel	4.E	scor-	2G	-gi,	4E	.	.	.
.	.	.	.	.	.	4E	mi	.	.
.	.	8F	.	.	.	.	.	.	.
=12	=12	=12	=12	=12	=12	=12	=12	=12	=12
2GG	fon-	2G	.	2r	.	4.D	scor-	1b	-gi,
.	.	.	.	.	.	8C	.	.	.
4GG	-do	2G	-gi,	2d	Nel	2BB	.	.	.
2G	del	.	.	.	.	.	.	.	.
.	.	4r	.	2D	fon-	2AA	-gi,	1r	.
4F	mio	4d	Nel	.	.	.	.	.	.
4G	cor	[2B	fon-	4E	-do	2r	.	.	.
4E	gli oc-	.	.	[4G	del	.	.	.	.
=13	=13	=13	=13	=13	=13	=13	=13	=13	=13
4D	-chi	4B]	.	4G]	.	2D	Nel	1r	.
4D	tuoi	4A	-do	4F	mio	.	.	.	.
4.C	por-	4c	del	4E	cor	2GG	fon-	.	.
.	.	4c	mio	4E	gli oc-	.	.	.	.
8BB	.	.	.	.	.	.	.	.	.
2AA	.	2c	cor,	4F	-chi	4AA	-do	2a	Nel
.	.	.	.	4E	tuoi	2C	del	.	.
2GG	-gi A	2r	.	2G	por-	.	.	2d	fon-
.	.	.	.	.	.	4BB	mio	.	.
=14	=14	=14	=14	=14	=14	=14	=14	=14	=14
4C	te	2r	.	2G	-gi,	4C	cor	4e	-do
4E	pa-	.	.	.	.	4BB	gli oc-	2g	del
2D	-le-	2A	Nel	2r	.	4D	-chi	.	.
.	.	.	.	.	.	4D	tuoi	4f#i	mio
2C	-se,	2E	fon-	2G	Nel	4E	por-	4g	cor
.	.	.	.	.	.	4C	-gi A	4e	gli oc-
2r	.	4F#X	-do	2D	fon-	4D	te	4a	-chi
.	.	[4A	del	.	.	4F	pa-	4a	tuoi
=15	=15	=15	=15	=15	=15	=15	=15	=15	=15
2D	Nel	4A]	.	4D	-do	2F	-le-	1a	por-
.	.	4D	mio	2d	del	.	.	.	.
4AA	fon-	2A	cor	.	.	2E	-se,	.	.
4AA	-do	.	.	4c	mio	.	.	.	.
4BB-X	del	2.D	gli oc-	4d	cor	4r	.	4f	-gi A
4GG	mio	.	.	4B-X	gli oc-	4D	gli oc-	2g	te
2D	cor	.	.	4A	-chi	4D	-chi	.	.
.	.	4D	-chi	4A	tuoi	4AA	tuoi	4f	pa-
=16	=16	=16	=16	=16	=16	=16	=16	=16	=16
2GG	gli oc-	4D	tuoi	4.G	por-	2BB-X	por-	2d	-le-
.	.	2d	por-	.	.	.	.	.	.
.	.	.	.	8F	.	.	.	.	.
4AA	-chi	.	.	2E	-gi	4AA	-gi A	2a	-se,
4AA	tuoi	4c#X	-gi A	.	.	4.AA	te	.	.
2F	por-	4d	te	2D	A	.	.	4r	.
.	.	.	.	.	.	8GGL	.	.	.
.	.	4d	pa-	.	.	8AA	.	4a	a
.	.	.	.	.	.	8BBnXiJ	.	.	.
2E	-gi A	2e	-le-	[2G	te	4C	.	4g	tutt’
.	.	.	.	.	.	[4BB	pa-	[4g	al-
=17	=17	=17	=17	=17	=17	=17	=17	=17	=17
4G	te	2d	-se,	4G]	.	4BB]	.	4g]	.
4G	pa-	.	.	4B-X	pa-	4.D	-le-	4g	-tri
2D	-le-	4r	.	2A	-le-	.	.	2f#X	co-
.	.	.	.	.	.	8C	.	.	.
.	.	4d	a	.	.	4AA	.	.	.
1GG	-se,	4d	tutt’	1G	-se,	4BB	-se,	4.g	-ver-
.	.	2B	al-	.	.	2D	a	.	.
.	.	.	.	.	.	.	.	8a	.
.	.	.	.	.	.	.	.	8bL	.
.	.	.	.	.	.	.	.	8ccJ	.
.	.	4B	-tri	.	.	4D	tutt’	[4dd	.
=18	=18	=18	=18	=18	=18	=18	=18	=18	=18
1r	.	2e	co-	2r	.	1G	al-	8ddL]	.
.	.	.	.	.	.	.	.	8ccJ	.
.	.	.	.	.	.	.	.	2cc	.
.	.	2d	-ver-	2G	a	.	.	.	.
.	.	.	.	.	.	.	.	4b	.
2r	.	2A	-to,	4F	tutt’	2C	-tri	4cc	-to,
.	.	.	.	2F	al-	.	.	4cc	a
2D	a	4r	.	.	.	2D	co-	4a	tutt’
.	.	4A	a	4F	-tri	.	.	[4a	al-
=19	=19	=19	=19	=19	=19	=19	=19	=19	=19
4C	tutt’	4c	tutt’	2E	co-	2E	-ver-	4a]	.
2C	al-	8CL	al-	.	.	.	.	4.g	-tri
.	.	8DJ	.	.	.	.	.	.	.
.	.	8EL	.	4.G	-ver-	2C	-to,	.	.
.	.	8FJ	.	.	.	.	.	8f	.
4C	-tri	4G	.	.	.	.	.	4e	.
.	.	.	.	8A	.	.	.	.	.
2GG	co-	4G	-tri	8BL	.	4r	.	4d	co-
.	.	.	.	8cJ	.	.	.	.	.
.	.	4D	co-	4d	.	4BB	a	4.g	-ver-
4.C	-ver-	2E	-ver-	2G	-to.	4C	tutt’	.	.
.	.	.	.	.	.	.	.	8f	.
.	.	.	.	.	.	[4C	al-	[4e	.
8D	.	.	.	.	.	.	.	.	.
=20	=20	=20	=20	=20	=20	=20	=20	=20	=20
8EL	.	2C	-to.	1G	Sai	4C]	.	8eL]	.
8FJ	.	.	.	.	.	.	.	8cJ	.
4G	.	.	.	.	.	4C	-tri	4e	.
2GG	-to.	2r	.	.	.	2BB	co-	2d	-to.
1r	.	1F	Sai	2A	quel	2C	-ver-	2r	.
.	.	.	.	4r	.	4.C	-to.	2a	Sai
.	.	.	.	4A	che	.	.	.	.
.	.	.	.	.	.	8D	.	.	.
=21	=21	=21	=21	=21	=21	=21	=21	=21	=21
1C	Sai	1E	quel	2.c	per	1E	.	2g	quel,
.	.	.	.	.	.	.	.	2r	.
.	.	.	.	4c	se-	.	.	.	.
2E	quel	4r	.	2B	-guir-	1r	.	1g	Sai
.	.	4e	che	.	.	.	.	.	.
2E	che	2e	per	4B	-ti ho	.	.	.	.
.	.	.	.	[4c	già	.	.	.	.
=22	=22	=22	=22	=22	=22	=22	=22	=22	=22
4.F	per	2c	se-	8cL]	.	1F	Sai	2a	quel
.	.	.	.	8B	.	.	.	.	.
.	.	.	.	8A	.	.	.	.	.
8E	.	.	.	8GJ	.	.	.	.	.
4D	.	2d	-guir-	4A	.	.	.	4r	.
4D	se-	.	.	4D	sof-	.	.	4a	che
4.C	-guir-	2G	-ti ho	8EL	-fer-	2E	quel,	2.cc	per
.	.	.	.	8FJ	.	.	.	.	.
.	.	.	.	4.G	.	.	.	.	.
8BB	.	.	.	.	.	.	.	.	.
2AA	.	4A	già	.	.	2r	.	.	.
.	.	.	.	8F#i	.	.	.	.	.
.	.	4A	sof-	4F#i	.	.	.	4cc	se-
=23	=23	=23	=23	=23	=23	=23	=23	=23	=23
4GG	-ti ho	4.B	-fer-	2G	-to,	2.D	Sai	2b	-guir-
2G	già	.	.	.	.	.	.	.	.
.	.	8c	.	.	.	.	.	.	.
.	.	4d	.	2G	Sai	.	.	4b	-ti ho
4E	sof-	2c	-to,	.	.	4E	quel	4.cc	già
2F	-fer-	.	.	2.A	quel	4r	.	.	.
.	.	.	.	.	.	.	.	8bL	.
.	.	4F	che	.	.	4C	che	8a	.
.	.	.	.	.	.	.	.	8gJ	.
2D	-to,	4.F	per	.	.	4D	per	4f	.
.	.	.	.	4A	che	4D	se-	[4a	sof-
.	.	8G	.	.	.	.	.	.	.
=24	=24	=24	=24	=24	=24	=24	=24	=24	=24
1r	.	4A	.	4c	per	4E	-guir-	4a]	.
.	.	4A	se-	4c	se-	4E	-ti ho	4.cc	-fer-
.	.	2.G	-guir-	2d	-guir-	4.G	già	.	.
.	.	.	.	.	.	.	.	8b	.
.	.	.	.	.	.	.	.	4b	.
.	.	.	.	.	.	8F	.	.	.
2C	E	.	.	4c	-ti ho	8EL	.	2cc	-to,
.	.	.	.	.	.	8DJ	.	.	.
.	.	4G	-ti ho	4.e	già	2C	.	.	.
4AA	tu	4A	già	.	.	.	.	2r	.
.	.	.	.	8dL	.	.	.	.	.
4AA	pur	4E	sof-	8c	.	[4AA	sof-	.	.
.	.	.	.	8BJ	.	.	.	.	.
=25	=25	=25	=25	=25	=25	=25	=25	=25	=25
2D	via	2F	-fer-	2.A	.	4AA]	.	2a	E
.	.	.	.	.	.	4.D	-fer-	.	.
2AA	di	2E	-to,	.	.	.	.	4a	tu
.	.	.	.	.	.	8C#i	.	.	.
.	.	.	.	4A	sof-	4C#i	.	4a	pur
4.D	pog-	4r	.	2A	-fer-	[1D	-to,	4f	via
.	.	2D	E	.	.	.	.	4f	di
8D	-gio in	.	.	.	.	.	.	.	.
4BB-X	pog-	.	.	2G	-to,	.	.	4.b-i	pog-
4GG	-gio	[4G	tu	.	.	.	.	.	.
.	.	.	.	.	.	.	.	8b-i	-gio in
=26	=26	=26	=26	=26	=26	=26	=26	=26	=26
2D	sor-	4G]	.	2r	.	2D]	.	2.a	pog-
.	.	4F	pur	.	.	.	.	.	.
1C	-gi,	4E	via	4r	.	1.E	.	.	.
.	.	4c	di	2G	E	.	.	4g	-gio
.	.	4.c	pog-	.	.	.	.	2g	sor-
.	.	.	.	4E	tu	.	.	.	.
.	.	8c	-gio in	.	.	.	.	.	.
4r	.	4B	pog-	4E	pur	.	.	4g	-gi,
4AA	E	4c	-gio	[4A	via	.	.	4cc	E
=27	=27	=27	=27	=27	=27	=27	=27	=27	=27
4AA	tu	2c	sor-	4A]	.	2E	E	2.cc	tu
4AA	pur	.	.	2E	di	.	.	.	.
4C	via	4G	-gi,	.	.	4E	tu	.	.
4AA	di	4c	E	4.A	pog-	4E	pur	4cc	pur
4.F	pog-	4c	tu	.	.	4C	via	4a	via
.	.	.	.	8A	-gio in	.	.	.	.
.	.	4A	pur	4F	pog-	4C	di	4a	di
8F	-gio in	.	.	.	.	.	.	.	.
4F	pog-	2d	via	4D	-gio	4.F	pog-	4.a	pog-
4D	-gio	.	.	[4A	sor-	.	.	.	.
.	.	.	.	.	.	8F	-gio in	8a	-gio in
=28	=28	=28	=28	=28	=28	=28	=28	=28	=28
2E	sor-	4r	.	4A]	.	4E	pog-	4cc	pog-
.	.	4B	di	4G	-gi,	4E	-gio	4b	-gio
2AA	-gi,	4.e	pog-	4r	.	2C	sor-	1a	sor-
.	.	.	.	4E	di	.	.	.	.
.	.	8e	-gio in	.	.	.	.	.	.
4r	.	4c	pog-	4.F	pog-	4AA	-gi,	.	.
4AA	di	4A	-gio	.	.	4C	di	.	.
.	.	.	.	8F	-gio in	.	.	.	.
4.C	pog-	2e	sor-	4E	pog-	2C	pog-	2g	-gi
.	.	.	.	4E	-gio	.	.	.	.
8C	-gio in	.	.	.	.	.	.	.	.
=29	=29	=29	=29	=29	=29	=29	=29	=29	=29
2.GG	pog-	2d	-gi	2G	sor-	4BB	-gio in	4r	.
.	.	.	.	.	.	2BB	pog-	4g	Di
.	.	4r	.	2D	-gi	.	.	2.g	gior-
4BB	-gio	4d	Di	.	.	4BB	-gio	.	.
2C	sor-	4c	gior-	2r	.	2E	sor-	.	.
.	.	4G	-no in	.	.	.	.	4g	-no in
2GG	-gi	2B-X	gior-	4r	.	4D	-gi	2g	gior-
.	.	.	.	4D	Di	4D	Di	.	.
=30	=30	=30	=30	=30	=30	=30	=30	=30	=30
4r	.	1A	-no,	2F	gior-	4C	gior-	2a	-no,
4D	Di	.	.	.	.	4D	-no in	.	.
4C	gior-	.	.	4E	-no in	4E	gior-	4r	.
4AA	-no in	.	.	4.F	gior-	8DL	.	2a	e
.	.	.	.	.	.	8CJ	.	.	.
2BB-X	gior-	2r	.	.	.	2D	-no,	.	.
.	.	.	.	8E	.	.	.	.	.
.	.	.	.	2D	.	.	.	4g	di
2AA	-no,	2A	e	.	.	2r	.	4f	me
.	.	.	.	4C#X	-no,	.	.	4e	non
=31	=31	=31	=31	=31	=31	=31	=31	=31	=31
1r	.	4G	di	4r	.	2D	e	4g	te ac-
.	.	4F	me	4D	e	.	.	4.a	-cor-
.	.	4E	non	4G	di	4C	di	.	.
.	.	.	.	.	.	.	.	8g	.
.	.	4E	te ac-	4G	me	4BB	me	4.g	.
2r	.	2D	-cor-	4A	non	4D	non	.	.
.	.	.	.	.	.	.	.	8f#i	.
.	.	.	.	4A	te ac-	4D	te ac-	4f#i	.
[2E	e	4C	-gi,	2c	-cor-	4.E	-cor-	2g	-gi,
.	.	4C	e	.	.	.	.	.	.
.	.	.	.	.	.	8F	.	.	.
=32	=32	=32	=32	=32	=32	=32	=32	=32	=32
4E]	.	4C	di	4G	-gi,	8GL	.	1r	.
.	.	.	.	.	.	8EJ	.	.	.
4D	di	8FL	me	2A	e	2F	.	.	.
.	.	8GJ	.	.	.	.	.	.	.
2C	me	8AL	.	.	.	.	.	.	.
.	.	8BJ	.	.	.	.	.	.	.
.	.	2c	.	4G	di	4E	-gi,	.	.
4.AA	non	.	.	4F	me	4r	.	2a	e
.	.	4.C	non	4E	non	2E	e	.	.
8BB	.	.	.	.	.	.	.	.	.
4C	.	.	.	4E	te ac-	.	.	4g	di
.	.	8D	.	.	.	.	.	.	.
4AA	te ac-	[4E	.	[4A	-cor-	4E	di	4cc	me
=33	=33	=33	=33	=33	=33	=33	=33	=33	=33
4.C	-cor-	4E]	.	8AL]	.	2E	me	4cc	non
.	.	.	.	8GJ	.	.	.	.	.
.	.	4E	te ac-	4.G	.	.	.	4cc	te ac-
8BB	.	.	.	.	.	.	.	.	.
2AA	.	2A	-cor-	.	.	4E	non	2cc	-cor-
.	.	.	.	8F#i	.	.	.	.	.
.	.	.	.	4F#i	.	4AA	te ac-	.	.
2GG	-gi	4D	-gi	2G	-gi	1D	-cor-	1b	-gi
.	.	4D	Che	.	.	.	.	.	.
4r	.	2G	son	2r	.	.	.	.	.
4GG	Che	.	.	.	.	.	.	.	.
=34	=34	=34	=34	=34	=34	=34	=34	=34	=34
2C	son	2E	sì	1r	.	2GG	-gi	2r	.
2AA	sì	2.F	stan-	.	.	2r	.	2cc	Che
1BB-X	stan-	.	.	2D	Che	2D	Che	2.f	son
.	.	4F	-co,	.	.	.	.	.	.
.	.	4r	.	[2B-X	son	4D	son	.	.
.	.	[4D	Che	.	.	4D	sì	4f	sì
=35	=35	=35	=35	=35	=35	=35	=35	=35	=35
2GG	-co,	4D]	.	4B-]	.	1D	stan-	2g	stan-
.	.	2B-X	son	4G	sì	.	.	.	.
4r	.	.	.	2G	stan-	.	.	2g	-co,
4G	e ’l	4B-i	sì	.	.	.	.	.	.
4F	sen-	2.A	stan-	2D	-co,	2D	-co,	4r	.
2F	-tier	.	.	.	.	.	.	4a	e ’l
.	.	.	.	2r	.	4r	.	4cc	sen-
4E	m’è	4G	-co,	.	.	4E	e ’l	[4cc	-tier
=36	=36	=36	=36	=36	=36	=36	=36	=36	=36
4F	tropp’	4r	.	2r	.	4AA	sen-	4cc]	.
2G	er-	4E	e ’l	.	.	4E	-tier	2b	m’è
.	.	2G	sen-	4r	.	4D	m’è	.	.
4GG	-to,	.	.	4G	e ’l	4D	tropp’	4b	tropp’
4r	.	2A	-tier	4F	sen-	4.F	er-	8ccL	er-
.	.	.	.	.	.	.	.	8b	.
2D	e ’l	.	.	2F	-tier	.	.	8a	.
.	.	.	.	.	.	8E	.	8gJ	.
.	.	[2A	m’è	.	.	4D	.	4.a	.
4AA	sen-	.	.	4E	m’è	4C	-to,	.	.
.	.	.	.	.	.	.	.	8g	.
=37	=37	=37	=37	=37	=37	=37	=37	=37	=37
4D	-tier	4A]	.	4F	tropp’	4r	.	4f	.
4C	m’è	4c	tropp’	2G	er-	2E	e ’l	4e	-to,
4C	tropp’	4.c	er-	.	.	.	.	4r	.
4.AA	er-	.	.	4F	-to,	4C	sen-	2a	e’l
.	.	8d	.	.	.	.	.	.	.
.	.	2e	.	4r	.	2C	-tier	.	.
8BB	.	.	.	.	.	.	.	.	.
4C	.	.	.	4E	e ’l	.	.	4g	sen-
2GG	-to,	2d	-to,	4G	sen-	2BB	m’è	2g	-tier
.	.	.	.	4G	-tier	.	.	.	.
=38	=38	=38	=38	=38	=38	=38	=38	=38	=38
2r	.	4r	.	4A	m’è	4C	tropp’	4e	m’è
.	.	4G	e ’l	4B-X	tropp’	2D	er-	4g	tropp’
2.D	e ’l	4F	sen-	2A	er-	.	.	2a	er-
.	.	2F	-tier	.	.	4D	-to,	.	.
.	.	.	.	4A	-to,	4r	.	4d	-to,
4C	sen-	4.E	m’è	4c	e ’l	4G	e ’l	4e	e’l
2C	-tier	.	.	4c	sen-	4G	sen-	4e	sen-
.	.	8DL	.	.	.	.	.	.	.
.	.	8E	.	[4c	-tier	[4E	-tier	[4g	-tier
.	.	8FJ	.	.	.	.	.	.	.
=39	=39	=39	=39	=39	=39	=39	=39	=39	=39
2GG	m’è	2.G	.	4c]	.	4E]	.	4g]	.
.	.	.	.	4B	m’è	4D	m’è	2g	m’è
2C	tropp’	.	.	2c	tropp’	8EL	tropp’	.	.
.	.	.	.	.	.	8F	.	.	.
.	.	4G	tropp’	.	.	8G	.	4e	tropp’
.	.	.	.	.	.	8EJ	.	.	.
2D	er-	8DL	er-	1A	er-	4F	.	1a	er-
.	.	8E	.	.	.	.	.	.	.
.	.	8F	.	.	.	4.D	er-	.	.
.	.	8DJ	.	.	.	.	.	.	.
2AA	.	2E	.	.	.	.	.	.	.
.	.	.	.	.	.	8C#i	.	.	.
.	.	.	.	.	.	4C#i	.	.	.
=40	=40	=40	=40	=40	=40	=40	=40	=40	=40
0Dl	-to.	0Dl	-to.	0Al	-to.	0Dl	-to.	0f#Xl	-to.
=41||	=41||	=41||	=41||	=41||	=41||	=41||	=41||	=41||	=41||
*M2/1	*	*M2/1	*	*M2/1	*	*M2/1	*	*M2/1	*
*met(C)	*	*met(C)	*	*met(C)	*	*met(C)	*	*met(C)	*
!!section: Ben veggio
!!!OMD: Ben veggio
2r	.	2D	Ben	1r	.	1r	.	1r	.
2GG	Ben	2.G	veg-	.	.	.	.	.	.
2.C	veg-	.	.	1r	.	1r	.	1r	.
.	.	4G	-gio	.	.	.	.	.	.
.	.	4E	di	.	.	.	.	.	.
4D	-gio	4F	lon-	.	.	.	.	.	.
=42	=42	=42	=42	=42	=42	=42	=42	=42	=42
4E	di	4G	-ta-	2r	.	1r	.	1r	.
4E	lon-	4G	-no il	.	.	.	.	.	.
2F	-ta-	4.A	dol-	2D	Ben	.	.	.	.
.	.	8B	.	.	.	.	.	.	.
2E	-no il	4c	.	2.G	veg-	1r	.	1r	.
.	.	2B	-ce	.	.	.	.	.	.
4G	dol-	.	.	.	.	.	.	.	.
4F#X	-ce	[4d	lu-	4A	-gio	.	.	.	.
=43	=43	=43	=43	=43	=43	=43	=43	=43	=43
2G	lu-	4d]	.	4B	di	1r	.	2d	Ben
.	.	8cL	.	4B	lon-	.	.	.	.
.	.	8BJ	.	.	.	.	.	.	.
2C	-me,	2.e	.	2.c	-ta-	.	.	2.g	veg-
1r	.	.	.	.	.	2GG	Ben	.	.
.	.	4d	-me,	4B	-no il	.	.	4g	-gio
.	.	4r	.	4A	dol-	2C	veg-	4f	di
.	.	4c	Ben	4A	-ce	.	.	4e	lon-
=44	=44	=44	=44	=44	=44	=44	=44	=44	=44
2GG	Ben	4B	veg-	2G	lu-	2D	-gio	2.g	-ta-
.	.	4B	-gio	.	.	.	.	.	.
4C	veg-	4.c	di	4E	-me,	4E	di	.	.
4AA	-gio	.	.	4A	Ben	4E	lon-	4a	-no il
.	.	8B	.	.	.	.	.	.	.
2D	di	4A	.	4F	veg-	2F	-ta-	4.a	dol-
.	.	4d	lon-	4D	-gio	.	.	.	.
.	.	.	.	.	.	.	.	8b	.
4C	lon-	[2G	-ta-	4E	di	2E	-no il	2cc	.
[4C	-ta-	.	.	4E	lon-	.	.	.	.
=45	=45	=45	=45	=45	=45	=45	=45	=45	=45
8CL]	.	4G]	.	2e	-ta-	2.G	dol-	4cc	-ce
8D	.	.	.	.	.	.	.	.	.
8E	.	4G	-no il	.	.	.	.	4.b	lu-
8FJ	.	.	.	.	.	.	.	.	.
4G	.	4G	dol-	2d	-no il	.	.	.	.
.	.	.	.	.	.	.	.	8cc	.
4D	-no il	4A	-ce	.	.	4F#X	-ce	4.dd	.
4.E	dol-	2G	lu-	4B	dol-	2G	lu-	.	.
.	.	.	.	.	.	.	.	8cc	.
.	.	.	.	4e	-ce	.	.	2cc	.
8F	.	.	.	.	.	.	.	.	.
4G	.	2G	-me	2d	lu-	2G	-me O-	.	.
4G	-ce	.	.	.	.	.	.	4b	-me
=46	=46	=46	=46	=46	=46	=46	=46	=46	=46
2F	lu-	2r	.	2A	-me	2C	-ve	4r	.
.	.	.	.	.	.	.	.	2cc	O-
2E	-me	2.G	O-	4r	.	2E	per	.	.
.	.	.	.	4B	O-	.	.	2b	-ve
2r	.	.	.	4B	-ve	4D	a-	.	.
.	.	4D	-ve	4A	per	4F	-spre	2dd	per
2C	O-	2G	per	4c	a-	4F	vi-	.	.
.	.	.	.	4c	-spre	4E	-e,	[4cc	a-
=47	=47	=47	=47	=47	=47	=47	=47	=47	=47
2GG	-ve	2.G	a-	2d	vie,	4r	.	4cc]	.
.	.	.	.	.	.	2D	O-	4b	-spre
2D	per	.	.	2r	.	.	.	2.a	vie
.	.	4F	-spre	.	.	4AA	-ve	.	.
2.C	a-	4.E	vi-	4r	.	2E	per	.	.
.	.	.	.	2G	O-	.	.	4g	mi
.	.	8F	.	.	.	.	.	.	.
.	.	2G	-e	.	.	[2D	a-	[2g	spro-
4BB	-spre	.	.	4D	-ve	.	.	.	.
=48	=48	=48	=48	=48	=48	=48	=48	=48	=48
4AA	vie,	2r	.	2A	per	4D]	.	4g]	.
4AA	O-	.	.	.	.	4C	-spre	4f#X	-ni e
4E	-ve	4r	.	2.G	a-	2BB	vie	2g	gi-
4E	per	4e	O-	.	.	.	.	.	.
4C#X	a-	4e	-ve	.	.	2AA	mi	4e	-ri,
4D	-spre	4d	per	4F	-spre	.	.	4a	O-
4AA	vie	4c#X	a-	2E	vie	[2AA	spro-	4.a	-ve
4AA	mi	4c#i	-spre	.	.	.	.	.	.
.	.	.	.	.	.	.	.	8g	.
=49	=49	=49	=49	=49	=49	=49	=49	=49	=49
4D	spro-	4d	vie	4r	.	4AA]	.	4f	.
4E	-ni e	4B	mi	4E	mi	4GG#X	-ni e	4e	per
2D	gi-	2.d	spro-	4F#X	spro-	2AA	gi-	4a	a-
.	.	.	.	4F#i	-ni e	.	.	4a	-spre
2GG	-ri,	.	.	2G	gi-	2BB	-ri,	4g	vie
.	.	4d	-ni e	.	.	.	.	2g	mi
2r	.	2c	gi-	4E	-ri,	2E	mi	.	.
.	.	.	.	4A	mi	.	.	[4cc	spro-
=50	=50	=50	=50	=50	=50	=50	=50	=50	=50
1r	.	4c	-ri,	4.A	spro-	2E	spro-	8ccL]	.
.	.	.	.	.	.	.	.	8bJ	.
.	.	4c	mi	.	.	.	.	2a	.
.	.	.	.	8G	.	.	.	.	.
.	.	4A	spro-	4F	.	4D	-ni e	.	.
.	.	4B	-ni e	4E	-ni e	4.E	gi-	4g	-ni e
1r	.	2c	gi-	2A	gi-	.	.	4.e	gi-
.	.	.	.	.	.	8D	.	.	.
.	.	.	.	.	.	4.C	.	.	.
.	.	.	.	.	.	.	.	8f	.
.	.	2d	-ri,	2G	-ri,	.	.	2g	.
.	.	.	.	.	.	8BB	.	.	.
.	.	.	.	.	.	4BB	.	.	.
=51	=51	=51	=51	=51	=51	=51	=51	=51	=51
2.C	Ma	2r	.	2r	.	1E	-ri,	1g	-ri,
.	.	2c	Ma	2.G	Ma	.	.	.	.
4C	non	.	.	.	.	.	.	.	.
4E	ho	2B	non	.	.	1r	.	1r	.
2G	co-	.	.	4E	non	.	.	.	.
.	.	4B	ho	4E	ho	.	.	.	.
4F	-me	[4c	co-	[4A	co-	.	.	.	.
=52	=52	=52	=52	=52	=52	=52	=52	=52	=52
2E	tu	4c]	.	4A]	.	1r	.	1r	.
.	.	4B	-me	4G	-me	.	.	.	.
2.F	da	4A	tu	2c	tu	.	.	.	.
.	.	2A	da	.	.	.	.	.	.
.	.	.	.	2.c	da	1r	.	2r	.
4E	vo-	4G	vo-	.	.	.	.	.	.
4.G	-lar	[2E	-lar	.	.	.	.	4r	.
.	.	.	.	4B	vo-	.	.	[4g	Ma
8F	.	.	.	.	.	.	.	.	.
=53	=53	=53	=53	=53	=53	=53	=53	=53	=53
8EL	.	2E]	.	4B	-lar	4r	.	4g]	.
8D	.	.	.	.	.	.	.	.	.
8C	.	.	.	8eL	piu-	2C	Ma	4g	non
8BBJ	.	.	.	8dJ	.	.	.	.	.
4.AA	.	2F	piu-	8cL	.	.	.	4a	ho
.	.	.	.	8BJ	.	.	.	.	.
.	.	.	.	4.A	.	4C	non	2cc	co-
8BB	.	.	.	.	.	.	.	.	.
8CL	.	2E	-me,	.	.	4E	ho	.	.
8DJ	.	.	.	8G	.	.	.	.	.
4E	.	.	.	4G	.	2G	co-	4b	-me
2F	piu-	2r	.	2D	-me,	.	.	4a	tu
.	.	.	.	.	.	4F	-me	[4a	da
=54	=54	=54	=54	=54	=54	=54	=54	=54	=54
2C	-me,	2c	Ma	2r	.	2E	tu	4a]	.
.	.	.	.	.	.	.	.	4g	vo-
2r	.	2A	non	2.D	Ma	2.F	da	8dL	-lar
.	.	.	.	.	.	.	.	8e	.
.	.	.	.	.	.	.	.	8f	.
.	.	.	.	.	.	.	.	8gJ	.
1r	.	2A	ho	.	.	.	.	4a	.
.	.	.	.	4A	non	4E	vo-	4.cc	piu-
.	.	4d	co-	4G	ho	4.G	-lar	.	.
.	.	.	.	.	.	.	.	8b	.
.	.	4d	-me	[4G	co-	.	.	4b	.
.	.	.	.	.	.	8F	.	.	.
=55	=55	=55	=55	=55	=55	=55	=55	=55	=55
2C	da	4c	tu	4G]	.	8EL	.	2cc	-me,
.	.	.	.	.	.	8D	.	.	.
.	.	4G	da	4E	-me	8C	.	.	.
.	.	.	.	.	.	8BBJ	.	.	.
4D	vo-	4d	vo-	4F	tu	2AA	.	4r	.
4.AA	-lar	4.c	-lar	2A	da	.	.	2e	da
.	.	.	.	.	.	2C	piu-	.	.
8BB	.	8dL	.	.	.	.	.	.	.
4C	.	8e	.	4G	vo-	.	.	4e	vo-
.	.	8cJ	.	.	.	.	.	.	.
8GGL	piu-	4.d	.	4G	-lar	2BB	-me.	2g	-lar
8AA	.	.	.	.	.	.	.	.	.
8BB	.	.	.	8DL	piu-	.	.	.	.
8CJ	.	16cLL	.	8EJ	.	.	.	.	.
.	.	16BJJ	.	.	.	.	.	.	.
=56	=56	=56	=56	=56	=56	=56	=56	=56	=56
4.D	.	4A	.	8FL	.	2r	.	8fL	piu-
.	.	.	.	8GJ	.	.	.	8e	.
.	.	4.d	piu-	2A	.	.	.	8f	.
8C	.	.	.	.	.	.	.	8gJ	.
2AA	.	.	.	.	.	2E	As-	2a	.
.	.	8c#i	.	.	.	.	.	.	.
.	.	4c#i	.	4A	-me.	.	.	.	.
1D	-me.	1d	-me.	4r	.	2.F	-sai	2a	-me.
.	.	.	.	4A	As-	.	.	.	.
.	.	.	.	4A	-sai	.	.	2r	.
.	.	.	.	4A	con-	4F	con-	.	.
=57	=57	=57	=57	=57	=57	=57	=57	=57	=57
1r	.	1r	.	2d	-ten-	2F	-ten-	2a	As-
.	.	.	.	2A	-ti	2E	-ti	4cc	-sai
.	.	.	.	.	.	.	.	4cc	con-
1r	.	1r	.	2A	las-	2.E	las-	2cc	-ten-
.	.	.	.	4G	-si_i	.	.	4b	-ti
.	.	.	.	[4d	miei	4F	-si_i	[4a	las-
=58	=58	=58	=58	=58	=58	=58	=58	=58	=58
1r	.	1r	.	4d]	.	4F	miei	4a]	.
.	.	.	.	4A	de-	4E	de-	4cc	-si_i
.	.	.	.	2d	-si-	2F	-si-	4a	miei
.	.	.	.	.	.	.	.	4b	de-
2C	As-	2r	.	2G	-ri,	4E	-ri,	1cc	-si-
.	.	.	.	.	.	4E	As-	.	.
[2F	-sai	2A	As-	2r	.	2C	-sai	.	.
=59	=59	=59	=59	=59	=59	=59	=59	=59	=59
4F]	.	2.c	-sai	2r	.	4C	con-	2a	-ri,
4F	con-	.	.	.	.	4.AA	-ten-	.	.
2F	-ten-	.	.	4r	.	.	.	2a	As-
.	.	.	.	.	.	8BBL	.	.	.
.	.	4c	con-	4F	As-	8C	.	.	.
.	.	.	.	.	.	8DJ	.	.	.
2E	-ti	2c	-ten-	8CL	-sai	2.E	.	2.g	-sai
.	.	.	.	8D	.	.	.	.	.
.	.	.	.	8E	.	.	.	.	.
.	.	.	.	8FJ	.	.	.	.	.
2E	las-	2B	-ti	4G	.	.	.	.	.
.	.	.	.	4E	con-	4E	-ti	4g	con-
=60	=60	=60	=60	=60	=60	=60	=60	=60	=60
4F	-si_i	2.A	las-	8AL	-ten-	4C	las-	4.f	-ten-
.	.	.	.	8G	.	.	.	.	.
2D	miei	.	.	8F	.	4D	-si_i	.	.
.	.	.	.	8EJ	.	.	.	8g	.
.	.	.	.	4D	.	4F	miei	2.a	.
4AA	de-	4c	-si_i	4E	-ti	4E	de-	.	.
2D	-si-	4A	miei	2F	las-	2D	-si-	.	.
.	.	4B	de-	.	.	.	.	4d	-ti
4C	-ri,	[2c	-si-	2E	-si_i	[2E	-ri,	[2g	las-
4C	As-	.	.	.	.	.	.	.	.
=61	=61	=61	=61	=61	=61	=61	=61	=61	=61
4C	-sai	2c]	.	2E	miei	2E]	.	4g]	.
4AA	con-	.	.	.	.	.	.	4a	-si_i’
2.D	-ten-	2A	-ri,	4D	de-	4r	.	2.f#X	miei
.	.	.	.	2A	-si-	4D	Pur	.	.
.	.	2r	.	.	.	4D	che	.	.
4BB-X	-ti	.	.	2G	.	4D	ben	4g	de-
2AA	las-	2A	Pur	.	.	2C	de-	2a	-si-
.	.	.	.	4F#i	.	.	.	.	.
=62	=62	=62	=62	=62	=62	=62	=62	=62	=62
2GG	-si_i	4d	che	1G	-ri,	2BB	-si-	2b	-ri,
.	.	4d	ben	.	.	.	.	.	.
8CL	miei	2.c	de-	.	.	2.E	-an-	2r	.
8D	.	.	.	.	.	.	.	.	.
8E	.	.	.	.	.	.	.	.	.
8FJ	.	.	.	.	.	.	.	.	.
4G	.	.	.	2r	.	.	.	1r	.
4G	de-	4B	-si-	.	.	4D	-do_i’	.	.
2F	-si-	4A	-an-	2D	Pur	4F	mi	.	.
.	.	4A	-do_i’	.	.	4F	con-	.	.
=63	=63	=63	=63	=63	=63	=63	=63	=63	=63
2C	-ri,	2.c	mi	4G	che	8EL	-su-	4r	.
.	.	.	.	.	.	8D	.	.	.
.	.	.	.	4G	ben	8C	.	4e	Pur
.	.	.	.	.	.	8BBJ	.	.	.
2r	.	.	.	2F	de-	4.AA	.	4a	che
.	.	4d	con-	.	.	.	.	2a	ben
.	.	.	.	.	.	8BB	.	.	.
2r	.	2e	-su-	2E	-si-	4C	.	.	.
.	.	.	.	.	.	4BB	-me,	2g	de-
2D	Pur	2d	-me,	2A	-an-	4r	.	.	.
.	.	.	.	.	.	4D	Pur	4f#i	-si-
=64	=64	=64	=64	=64	=64	=64	=64	=64	=64
4GG	che	2d	Pur	4G	-do_i’	4BB	che	2.g	-an-
4GG	ben	.	.	2G	mi	4BB	ben	.	.
2.C	de-	4e	che	.	.	4.C	de-	.	.
.	.	4e	ben	4G	con-	.	.	4e	-do i’
.	.	.	.	.	.	8D	.	.	.
.	.	4c	de-	2G	-su-	4E	.	2g	mi
4GG	-si-	4B	-si-	.	.	4D	-si-	.	.
4C	-an-	2c	-an-	2E	-me,	[2E	-an-	4g	con-
4AA	-do i’	.	.	.	.	.	.	[4a	-su-
=65	=65	=65	=65	=65	=65	=65	=65	=65	=65
2.C	mi	4c	-do i’	4r	.	4E]	.	4a]	.
.	.	2c	mi	4E	Pur	4E	-do i’	4g	-me,
.	.	.	.	4E	che	4E	mi	4r	.
4D	con-	8BL	.	2A	ben	4F	con-	4d	i’
.	.	8AJ	.	.	.	.	.	.	.
2E	-su-	4c	.	.	.	2E	-su-	2g	mi
.	.	4B	con-	2G	de-	.	.	.	.
2D	-me,	2d	-su-	.	.	2AA	-me,	2a	con-
.	.	.	.	4F#i	-si-	.	.	.	.
=66	=66	=66	=66	=66	=66	=66	=66	=66	=66
1r	.	4d	-me,	2.G	-an-	4r	.	4.b	-su-
.	.	4B	Nè	.	.	4D	Nè	.	.
.	.	.	.	.	.	.	.	8cc	.
.	.	4B	le	.	.	4D	le	8ddL	.
.	.	.	.	.	.	.	.	8gJ	.
.	.	4e	dis-	4E	-do i’	4G	dis-	4.cc	.
2r	.	2d	-piac-	4G	mi	2G	-piac-	.	.
.	.	.	.	.	.	.	.	8b	.
.	.	.	.	4G	con-	.	.	4b	.
2C	Nè	2c	-cia,	2G	-su-	2E	-cia,	2cc	-me,
=67	=67	=67	=67	=67	=67	=67	=67	=67	=67
4F	le	2c	che	2A	-me,	2F	che	1r	.
4F	dis-	.	.	.	.	.	.	.	.
2F	-piac-	4A	per	4r	.	2C	per	.	.
.	.	4A	lei	2A	Nè	.	.	.	.
2D	-cia,	4r	.	.	.	2F	lei	2r	.
.	.	4A	so-	2F	le	.	.	.	.
2D	che	2d	-spi-	.	.	4r	.	2a	Nè
.	.	.	.	4D	dis-	4F	so-	.	.
=68	=68	=68	=68	=68	=68	=68	=68	=68	=68
4C	per	2G	-ri,	2E	-piac-	2E	-spi-	4cc	le
4C	lei	.	.	.	.	.	.	4cc	dis-
4r	.	2A	Nè	2F	-cia,	4C	-ri,	2cc	-piac-
4AA	so-	.	.	.	.	4C	Nè	.	.
2D	-spi-	4F	le	2r	.	4F	le	2a	-cia,
.	.	4F	dis-	.	.	4F	dis-	.	.
2D	-ri,	2F	-piac-	2A	Nè	2F	-piac-	2a	che
=69	=69	=69	=69	=69	=69	=69	=69	=69	=69
1r	.	2C	-cia,	4c	le	4E	-cia,	4g	per
.	.	.	.	4c	dis-	2E	che	4g	lei
.	.	2C	che	2c	-piac-	.	.	4r	.
.	.	.	.	.	.	4G	per	4e	so-
2D	Nè	4F	per	4A	-cia,	4F	lei	2a	-spi-
.	.	4F	lei	4d	che	4F	so-	.	.
4F	le	4r	.	4c	per	2F	-spi-	2a	-ri,
4F	dis-	4A	so-	4c	lei	.	.	.	.
=70	=70	=70	=70	=70	=70	=70	=70	=70	=70
2F	-piac-	2A	-spi-	4r	.	4C	-ri,	2r	.
.	.	.	.	4A	so-	4C	Nè	.	.
2D	-cia,	2A	-ri,	1d	-spi-	4F	le	2.a	che
.	.	.	.	.	.	4F	dis-	.	.
2D	che	4r	.	.	.	2F	-piac-	.	.
.	.	4A	Nè	.	.	.	.	4d	per
4C	per	4c	le	2G	-ri,	2E	-cia,	[2g	lei
4C	lei	4c	dis-	.	.	.	.	.	.
=71	=71	=71	=71	=71	=71	=71	=71	=71	=71
4r	.	2c	-piac-	2r	.	2E	che	4g]	.
4AA	so-	.	.	.	.	.	.	4a	so-
2D	-spi-	4A	-cia,	4r	.	4D	per	2f#X	-spi-
.	.	4A	che	4A	Nè	2D	lei	.	.
2GG	-ri,	4G	per	4B	le	.	.	4g	-ri,
.	.	4G	lei	4B	dis-	4D	so-	2g	che
2GG	che	4r	.	2B	-piac-	2D	-spi-	.	.
.	.	4G	so-	.	.	.	.	4g	per
=72	=72	=72	=72	=72	=72	=72	=72	=72	=72
4C	per	4.E	-spi-	4c	-cia	4E	-ri,	2g	lei
4C	lei	.	.	4c	che	4E	che	.	.
.	.	8F	.	.	.	.	.	.	.
4r	.	2G	.	4B	per	4D	per	4r	.
4GG	so-	.	.	4B	lei	4D	lei	4g	so-
1C	-spi-	[1Gl	-ri.	4r	.	4r	.	4.e	-spi-
.	.	.	.	4G	so-	4C	so-	.	.
.	.	.	.	.	.	.	.	8f	.
.	.	.	.	2c	-spi-	2E	-spi-	2g	.
=73	=73	=73	=73	=73	=73	=73	=73	=73	=73
0GGl	-ri.	0G]	.	0Bl	-ri.	0Dl	-ri.	0gl	-ri.
==	==	==	==	==	==	==	==	==	==
*-	*-	*-	*-	*-	*-	*-	*-	*-	*-
!!!system-decoration: s1,s2,s3,s4,s5
!!!RDF**kern: i = editorial accidental
!!!RDF**kern: l = terminal long
!!!ENC: Janosch Umbreit
!!!END: 2026/04/19
!!!EED: Benjamin Ory
!!!EEV: 2026/05/18
!!!YEC: Copyright 2026 Jessie Ann Owens and Scott Metcalfe, All Rights Reserved
!!!ONB: Translated from MusicXML on 2026/05/18
!!!verovio: header encoded
!!!header-left: Edited by Jessie Ann Owens and Scott Metcalfe (2026)\n
!!!header-right:
!!!header-center:
!!muse2ps: C^@{COM}^i2I150v75,75,75,75,110c122z18l2780t100
